src/16/actions/draw-connector.svg

<svg xmlns="http://www.w3.org/2000/svg" width="16" height="16" viewBox="0 0 16 16">
 <defs>
  <style id="current-color-scheme" type="text/css">
   .ColorScheme-Text { color:#565656; } .ColorScheme-Highlight { color:#5294e2; }
  </style>
 </defs>
 <path style="fill:currentColor" class="ColorScheme-Text" d="m 11,0 0,0.011719 0,1.543 c -0.363,0.021 -0.723,0.0411 -1.1152,0.0781 -1.2789,0.1228 -2.6619,0.329 -3.8848,0.7305 l 0,-0.3633 -4,0 0,4 0.127,0 c -0.5694,1.3541 -0.92,2.9317 -1.1622,4.391 -0.03542,0.213 -0.05555,0.401 -0.08589,0.609 l -0.87891,0 0,0.012 0,3.988 0,0.012 1.5,0 2.5,0 0,-0.012 0,-1.543 c 0.3633,-0.021 0.7235,-0.041 1.1152,-0.078 1.2789,-0.123 2.6619,-0.329 3.8848,-0.731 l 0,0.364 4,0 0,-4.0003 -0.127,0 c 0.569,-1.3541 0.92,-2.9317 1.162,-4.3906 0.035,-0.2136 0.056,-0.4019 0.086,-0.6094 l 0.879,0 0,-0.0117 0,-3.9883 0,-0.0117 -1.5,0 -2.5,0 z M 11,2.5547 11,4 l 0,0.0117 2.111,0 C 13.088,4.1652 13.075,4.3022 13.049,4.459 12.788,6.0281 12.351,7.7156 11.744,9.0117 L 9,9.0117 9,11.562 C 7.8366,11.986 6.3724,12.255 5.0195,12.385 4.6616,12.419 4.334,12.437 4,12.457 L 4,11.012 4,11 1.8887,11 C 1.9118,10.846 1.9252,10.71 1.9512,10.553 2.2117,8.9836 2.6492,7.2961 3.2559,6 L 6,6 6,3.4492 C 7.1634,3.0253 8.6276,2.7567 9.9805,2.627 10.338,2.593 10.666,2.5747 11,2.5547 Z"/>
</svg>

<svg xmlns="http://www.w3.org/2000/svg" width="16" height="16"><defs><style id="current-color-scheme" type="text/css"></style></defs><path d="M11 0v1.555c-.363.02-.723.04-1.115.078-1.28.123-2.662.329-3.885.73V2H2v4h.127c-.57 1.354-.92 2.932-1.162 4.391-.036.213-.056.401-.086.609H0v4.012h4v-1.555c.363-.021.724-.041 1.115-.078 1.28-.123 2.662-.329 3.885-.731v.364h4v-4h-.127c.569-1.354.92-2.932 1.162-4.39.035-.214.056-.403.086-.61H15V0h-4zm0 2.555v1.457h2.111c-.023.153-.036.29-.062.447-.261 1.57-.698 3.257-1.305 4.553H9v2.55c-1.163.424-2.628.693-3.98.823-.358.034-.686.052-1.02.072V11H1.889c.023-.154.036-.29.062-.447.26-1.57.698-3.257 1.305-4.553H6V3.45c1.163-.425 2.628-.693 3.98-.823.358-.034.686-.052 1.02-.072z" fill="currentColor" color="#565656"/></svg>
